X: 22942
T: Larry The Beer Drinker
R: jig
M: 6/8
K: Dmajor
|:D2 F FEF|AFE EFE|D2 F FEF|AFD EFE|
D2 F FEF|AFA d2 d|cBA BAF|1 AFE EFE:|2 AFE E2 e||
|:ecA Acd|ecA A2 f|ecA Ace|fdB Bcd|
ecB c2 B|Ace a3|fec ecB|1 BA^G Acd:|2 BA^G ABc||
d3 F3|AFE FBc|d2 F FEF|AFD E2 B/c/|
d2 F FEF|AFA d2 d|cBA BAF|1 AFE EBc:|2 AFE E3||

